static/images/skills/python.svg

<svg xmlns="http://www.w3.org/2000/svg" xml:space="preserve" style="fill-rule:evenodd;clip-rule:evenodd;stroke-linejoin:round;stroke-miterlimit:2" viewBox="0 0 1200 900"><path d="M0 0h1200v900H0z" style="fill:#022846"/><path d="M63.391 1.988c-4.222.02-8.252.379-11.8 1.007-10.45 1.846-12.346 5.71-12.346 12.837v9.411h24.693v3.137H29.977c-7.176 0-13.46 4.313-15.426 12.521-2.268 9.405-2.368 15.275 0 25.096 1.755 7.311 5.947 12.519 13.124 12.519h8.491V67.234c0-8.151 7.051-15.34 15.426-15.34h24.665c6.866 0 12.346-5.654 12.346-12.548V15.833c0-6.693-5.646-11.72-12.346-12.837-4.244-.706-8.645-1.027-12.866-1.008M50.037 9.557c2.55 0 4.634 2.117 4.634 4.721 0 2.593-2.083 4.69-4.634 4.69-2.56 0-4.633-2.097-4.633-4.69-.001-2.604 2.073-4.721 4.633-4.721" style="fill:url(#a);fill-rule:nonzero" transform="translate(229.003 138.481)scale(5.7967)"/><path d="M91.682 28.379v10.967c0 8.5-7.208 15.655-15.426 15.655H51.591c-6.756 0-12.346 5.783-12.346 12.549v23.515c0 6.691 5.818 10.628 12.346 12.547 7.816 2.297 15.312 2.713 24.665 0 6.216-1.801 12.346-5.423 12.346-12.547v-9.412H63.938v-3.138h37.012c7.176 0 9.852-5.005 12.348-12.519 2.578-7.735 2.467-15.174 0-25.096-1.774-7.145-5.161-12.521-12.348-12.521zM77.809 87.927c2.561 0 4.634 2.097 4.634 4.692 0 2.602-2.074 4.719-4.634 4.719-2.55 0-4.633-2.117-4.633-4.719 0-2.595 2.083-4.692 4.633-4.692" style="fill:url(#b);fill-rule:nonzero" transform="translate(229.003 138.481)scale(5.7967)"/><defs><linearGradient id="a" x1="0" x2="1" y1="0" y2="0" gradientTransform="rotate(40.958 -1.433 16.304)scale(74.8544)" gradientUnits="userSpaceOnUse"><stop offset="0" style="stop-color:#5a9fd4;stop-opacity:1"/><stop offset="1" style="stop-color:#306998;stop-opacity:1"/></linearGradient><linearGradient id="b" x1="0" x2="1" y1="0" y2="0" gradientTransform="rotate(234.985 66.136 18.761)scale(35.1798)" gradientUnits="userSpaceOnUse"><stop offset="0" style="stop-color:#ffd43b;stop-opacity:1"/><stop offset="1" style="stop-color:#ffe873;stop-opacity:1"/></linearGradient></defs></svg>

<?xml version="1.0" encoding="UTF-8" standalone="no"?>
<!DOCTYPE svg PUBLIC "-//W3C//DTD SVG 1.1//EN" "http://www.w3.org/Graphics/SVG/1.1/DTD/svg11.dtd">
<svg width="100%" height="100%" viewBox="0 0 1200 900" version="1.1" xmlns="http://www.w3.org/2000/svg" xmlns:xlink="http://www.w3.org/1999/xlink" xml:space="preserve" xmlns:serif="http://www.serif.com/" style="fill-rule:evenodd;clip-rule:evenodd;stroke-linejoin:round;stroke-miterlimit:2;">
    <rect x="0" y="0" width="1200" height="900" style="fill:rgb(2,40,70);"/>
    <g transform="matrix(4.79233,0,0,4.79233,293.291,143.291)">
        <g transform="matrix(1.20958,0,0,1.20958,-13.4147,-1.00369)">
            <path d="M63.391,1.988C59.169,2.008 55.139,2.367 51.591,2.995C41.141,4.841 39.245,8.705 39.245,15.832L39.245,25.243L63.938,25.243L63.938,28.38L29.977,28.38C22.801,28.38 16.517,32.693 14.551,40.901C12.283,50.306 12.183,56.176 14.551,65.997C16.306,73.308 20.498,78.516 27.675,78.516L36.166,78.516L36.166,67.234C36.166,59.083 43.217,51.894 51.592,51.894L76.257,51.894C83.123,51.894 88.603,46.24 88.603,39.346L88.603,15.833C88.603,9.14 82.957,4.113 76.257,2.996C72.013,2.29 67.612,1.969 63.391,1.988ZM50.037,9.557C52.587,9.557 54.671,11.674 54.671,14.278C54.671,16.871 52.588,18.968 50.037,18.968C47.477,18.968 45.404,16.871 45.404,14.278C45.403,11.674 47.477,9.557 50.037,9.557Z" style="fill:url(#_Linear1);fill-rule:nonzero;"/>
        </g>
        <g transform="matrix(1.20958,0,0,1.20958,-13.4147,-1.00369)">
            <path d="M91.682,28.379L91.682,39.346C91.682,47.846 84.474,55.001 76.256,55.001L51.591,55.001C44.835,55.001 39.245,60.784 39.245,67.55L39.245,91.065C39.245,97.756 45.063,101.693 51.591,103.612C59.407,105.909 66.903,106.325 76.256,103.612C82.472,101.811 88.602,98.189 88.602,91.065L88.602,81.653L63.938,81.653L63.938,78.515L100.95,78.515C108.126,78.515 110.802,73.51 113.298,65.996C115.876,58.261 115.765,50.822 113.298,40.9C111.524,33.755 108.137,28.379 100.95,28.379L91.682,28.379ZM77.809,87.927C80.37,87.927 82.443,90.024 82.443,92.619C82.443,95.221 80.369,97.338 77.809,97.338C75.259,97.338 73.176,95.221 73.176,92.619C73.176,90.024 75.259,87.927 77.809,87.927Z" style="fill:url(#_Linear2);fill-rule:nonzero;"/>
        </g>
    </g>
    <defs>
        <linearGradient id="_Linear1" x1="0" y1="0" x2="1" y2="0" gradientUnits="userSpaceOnUse" gradientTransform="matrix(56.5291,49.0678,-49.0678,56.5291,10.3369,4.93063)"><stop offset="0" style="stop-color:rgb(90,159,212);stop-opacity:1"/><stop offset="1" style="stop-color:rgb(48,105,152);stop-opacity:1"/></linearGradient>
        <linearGradient id="_Linear2" x1="0" y1="0" x2="1" y2="0" gradientUnits="userSpaceOnUse" gradientTransform="matrix(-20.1858,-28.8124,28.8124,-20.1858,88.7189,83.6924)"><stop offset="0" style="stop-color:rgb(255,212,59);stop-opacity:1"/><stop offset="1" style="stop-color:rgb(255,232,115);stop-opacity:1"/></linearGradient>
    </defs>
</svg>
